X:1
T:Title
%%score 1 [ ( 2 3 ) ( 4 5 ) ] { ( 6 8 10 ) | ( 7 9 11 ) }
L:1/8
Q:1/4=60
M:3/4
K:F
V:1 bass nm="Sarastro"
V:2 treble-8 nm="Tenor"
V:3 treble-8 
V:4 bass nm="Bass"
V:5 bass 
V:6 treble nm="Piano"
V:8 treble 
V:10 treble 
V:7 bass 
V:9 bass 
V:11 bass 
V:1
"^Adagio" z6 | z6 | z6 | z4 C,2 | F,4 C,2 | G,4 C,2 | A,4 B,G, | F,2 E,2 G,2 | B,4 G,2 | E,4 G,E, | %10
w: |||O|I- sis|und O-|si- ris, _|schen- ket der|Weis- heit|Geist dem _|
 C,4 B,,2 | A,,4 z2 | F,2 F,2 A,2 | =B,,4 D,B,, | G,,4 F,2 | D,2 E,2 z2 | C,2 E,2 G,2 | A,,4 F,D, | %18
w: neu- en|Paar!|Die ihr der|Wand'- rer _|Schrit- te|len- ket|stärkt mit Ge-|duld sie _|
 C,4 D,2 | D,2 E,2 z2 | C,2 =B,,2 A,,2 | ^G,,2 A,,2 F,,2 | =G,,4 G,,2 | C,4 z2 | z6 | z6 | z6 | %27
w: in Ge-|fahr, *|stärkt mit Ge-|duld _ sie|in Ge-|fahr.||||
 z6 | G,2 A,2 _B,2 | C4 A,_G, | D,4 C,2 | C,2 B,,2 z2 | B,2 G,2 E,2 | =F,4 C,2 | _A,,4 F,,2 | %35
w: |Lasst sie der|Prü- fung _|Früch- te|se- hen;|doch soll- ten|sie zu|Gra- be|
 _D,2 C,2 z2 | C,2 F,2 A,2 | A,G, G,2 z2 | C,2 G,2 B,2 | B,2 A,2 z2 | F,2 A,2 C2 | D,4 B,G, | %42
w: ge- hen,|so lohnt der|Tu- * gend|küh- * nen|Lauf, _|nehmt sie in|eu- ren _|
 F,4 G,2 | (G,2 A,2) z2 | F,2 E,2 D,2 | (^C,2 D,2) B,,2 | C,4 C,2 | F,,4 z2 | z6 | z6 | z6 | z6 | %52
w: Wohn- sitz|auf, _|nehmt sie in|eu- * ren|Wohn- sitz|auf.|||||
 z6 | z6 | z6 |] %55
w: |||
V:2
 z6 | z6 | z6 | z6 | z6 | z6 | z6 | z6 | z6 | z6 | z6 | z6 | z6 | z6 | z6 | z6 | z6 | z6 | z6 | %19
w: |||||||||||||||||||
 z6 | z6 | z6 | z6 | z6 |!p!"^TENOR I,II" e2 e2 e2 | (e2 f2) f2 | d4 d2 | c4 z2 | z6 | z6 | z6 | %31
w: |||||Stärkt mit Ge-|duld _ sie|in Ge-|fahr!||||
 z6 | z6 | z6 | z6 | z6 | z6 | z6 | z6 | z6 | z6 | z6 | z6 | z6 | z6 | z6 | z6 | z6 |!p! f2 f2 f2 | %49
w: |||||||||||||||||Nehmt sie in|
 f4 g2 | f4 e2 | f4 z2 | z6 | z6 | z6 |] %55
w: eu- ren|Wohn- sitz|auf!||||
V:3
 x6 | x6 | x6 | x6 | x6 | x6 | x6 | x6 | x6 | x6 | x6 | x6 | x6 | x6 | x6 | x6 | x6 | x6 | x6 | %19
 x6 | x6 | x6 | x6 | x6 | c2 c2 c2 | c4 c2 | c4 =B2 | c4 x2 | x6 | x6 | x6 | x6 | x6 | x6 | x6 | %35
 x6 | x6 | x6 | x6 | x6 | x6 | x6 | x6 | x6 | x6 | x6 | x6 | x6 | f2 e2 d2 | (^c2 d2) d2 | c4 B2 | %51
 A4 x2 | x6 | x6 | x6 |] %55
V:4
 z6 | z6 | z6 | z6 | z6 | z6 | z6 | z6 | z6 | z6 | z6 | z6 | z6 | z6 | z6 | z6 | z6 | z6 | z6 | %19
w: |||||||||||||||||||
 z6 | z6 | z6 | z6 | z6"^Priests" |!p! C2 =B,2 A,2 | (^G,2 A,2) A,2 | =G,4 F,2 | E,4 z2 | z6 | z6 | %30
w: |||||Stärkt mit Ge-|duld _ sie|in Ge-|fahr!|||
 z6 | z6 | z6 | z6 | z6 | z6 | z6 | z6 | z6 | z6 | z6 | z6 | z6 | z6 | z6 | z6 | z6 | z6 | %48
w: ||||||||||||||||||
!p!"^Priests" A,2 A,2 A,2 | (A,2 B,2) B,2 | A,4 G,2 | F,4 z2 | z6 | z6 | z6 |] %55
w: Nehmt sie in|eu- * ren|Wohn- sitz|auf!||||
V:5
 x6 | x6 | x6 | x6 | x6 | x6 | x6 | x6 | x6 | x6 | x6 | x6 | x6 | x6 | x6 | x6 | x6 | x6 | x6 | %19
 x6 | x6 | x6 | x6 | x6 | C,2 C,2 C,2 | F,4 D,2 | G,4 G,,2 | C,4 x2 | x6 | x6 | x6 | x6 | x6 | x6 | %34
 x6 | x6 | x6 | x6 | x6 | x6 | x6 | x6 | x6 | x6 | x6 | x6 | x6 | x6 | F,2 F,2 F,2 | B,,4 B,,2 | %50
 C,4 C,2 | F,,4 x2 | x6 | x6 | x6 |] %55
V:6
 ([A,CF]4 [G,B,E]2 | [F,A,F]4 [B,DG]2) | ([E,G,C]3 [F,A,D] [G,B,E]2) | [F,A,F]4 z2 | [A,CF]4 z2 | %5
 [CEG]4 z2 | ([FA]4 [DB][B,G]) | ([A,F]2 [G,E]2) [G,B,E]2 | [G,B,E]6- | [G,B,E]6- | [G,B,E]6 | %11
 (.[A,F]2 .[A,CF]2 .[A,CF]2) | [A,DF]6 | (.[=B,DF]2 .[B,DF]2 .[B,DF]2) | [=B,DF]6- | %15
 [B,DF]2 (.[G,CE]2 .[G,CE]2) | [G,CEG]6 | [A,DF]6 | ([G,CE]4 [F,G,=B,D]2) | %19
 ([F,G,=B,D]2 [E,G,CE]2) z2 | (.E2 .[CE]2 .[CE]2) | ([CE]4 [A,DF][F,D] | [G,C]4 [F,=B,]2) | %23
 [E,C]2 (.[CE]2 .[CE]2) |"^BASS I,II" [CE]6- | [CE]2 [CF]2 [A,CF]2 | [G,D]6 | C2 (.[EG]2 .[EG]2) | %28
 ([EG]2 [^FA]2 [GB]2) | [DAc-]6 | [Ac]6 | ([Ac]2 [GB]2) z2 | [B,E]6 | z2 (F2 C2) | z2 (_A,2 F,2) | %35
 ([F,=B,]2 [E,C]2) [G,C]2 | ([=A,C]2 [C-F]2 [CFA]2) | A G (.[DG]2 .[DG]2) | (C2 G2- [GB]2) | %39
 ([FB]2 (.[FA]2) .[FA]2) | [CFAc]6 | [DGB]6 | ([FA]4 [B,EG]2) | ([B,EG]2 [A,FA]2) z2 | %44
 (.A2 .[FA]2 .[FA]2) | ([FA]4 [DGB][B,DG]) | ([CF]4 [B,CE]2) | [A,CF]2 (.[A,F]2 .[A,F]2) | %48
 [A,F-]6 | F4 [B,DG]2 | ([A,=CF]4 [G,B,E]2) | (.[A,F]2 .[A,CF]2 .[A,CF]2) | [A,D]2 [B,D]2 [B,D]2 | %53
 (C3 D E2) | [F,A,F]4 z2 |] %55
V:7
!p! (F,4 C,2 | D,4 B,,2) | C,4 C,2 | F,,4 z2 | F,4 z2 | C,4 z2 | (F,2 D,2) B,,2 | C,2 C,2 C,2 | %8
 C,6- | C,6- | C,6 | (.[F,,F,]2 .[F,,F,]2 .[F,,F,]2) | D,6 | (.[G,,G,]2 .[G,,G,]2 .[G,,G,]2) | %14
 [G,,G,]6- | [G,,G,]2 (.C,2 .C,2) | E,,6 | F,,6 | G,,6 | z2 (.C,2 .[C,C]2) | %20
 ([C,C]2 [=B,,=B,]2 [A,,A,]2 | [^G,,^G,]2 [A,,A,]2 [F,,F,]2) | G,,6 | C,2 (.C,2 .C,2) | C,6 | %25
 (F,,4 D,,2) | G,,6 | [C,E,]2 (.C,2 .C,2) | (C,2 A,,2 G,,2) | ^F,,6- | F,,6 | (G,,2 G,,2 G,,2) | %32
 [C,E,G,]6 | z2 (F,2 C,2) | z2 (_A,,2 F,,2) | (_D,2 C,2 B,,2) | =A,,6 | (.B,,2 .B,,2 .B,,2) | C,6 | %39
 (.D,2 .D,2 .D,2) | [A,,A,]6 | [B,,B,]6 | C,6 | z2 (.F,2 .F,2) | ([F,F]2 [E,E]2 [D,D]2 | %45
 [^C,^C]2 [D,D]2 [B,,B,]2) | =C,6 | (.[F,,F,]2 .[F,,F,]2 .[F,,F,]2) | [F,,F,]6 | B,,6 | C,6 | %51
 (.[F,,F,]2 .F,,2 .F,,2) | ([D,,D,]2 B,,2 G,,2) | C,4- [C,,C,]2 | F,,4 z2 |] %55
V:8
 x6 | x6 | x6 | x6 | x6 | x6 | (C2 D2) D2 | C4 x2 | x6 | x6 | x6 | x6 | x6 | x6 | x6 | x6 | x6 | %17
 x6 | x6 | x6 | x6 | x6 | x6 | x6 | x6 | x6 | x6 | x6 | x6 | (c4 A^F) | (D4 C2) | %31
 (C2 [B,D]2) [B,D]2 | x6 | x6 | x6 | x6 | x6 | D2 x4 | x6 | D6 | x6 | x6 | C6 | x6 | x6 | x6 | x6 | %47
 x6 | x6 | x6 | x6 | x6 | (F4 G2) | [F,A,]4 [G,B,]2 | x6 |] %55
V:9
 x6 | x6 | x6 | x6 | x6 | x6 | x6 | x6 | x6 | x6 | x6 | x6 | x6 | x6 | x6 | x6 | x6 | x6 | x6 | %19
 x6 | x6 | x6 | (E,4 D,2) | x6 | x6 | x6 | x6 | x6 | x6 | D,6 | [D,A,]6 | x6 | x6 | x6 | x6 | x6 | %36
 x6 | x6 | x6 | x6 | x6 | x6 | x6 | x6 | x6 | x6 | x6 | x6 | x6 | x6 | x6 | x6 | x6 | x6 | x6 |] %55
V:10
 x6 | x6 | x6 | x6 | x6 | x6 | x6 | x6 | x6 | x6 | x6 | x6 | x6 | x6 | x6 | x6 | x6 | x6 | x6 | %19
 x6 | x6 | x6 | x6 | x6 | (C2 =B,2 A,2 | ^G,2 A,2) x2 | (C4 =B,2) | G,6 | C4 D2 | x6 | x6 | x6 | %32
 x6 | x6 | x6 | x6 | x6 | [B,F]6 | [CE]6 | x6 | x6 | x6 | x6 | C4 F2 | x6 | x6 | x6 | x6 | %48
 (F2 E2 D2 | [A,^C]2 [B,D]2) x2 | x6 | x6 | x6 | x6 | x6 |] %55
V:11
 x6 | x6 | x6 | x6 | x6 | x6 | x6 | x6 | x6 | x6 | x6 | x6 | x6 | x6 | x6 | x6 | x6 | x6 | x6 | %19
 x6 | x6 | x6 | x6 | x6 | x6 | x6 | G,,4 F,2 | x6 | x6 | x6 | x6 | (.[D,A,]2 .[D,G,]2) .[D,G,]2 | %32
 x6 | x6 | x6 | x6 | x6 | x6 | x6 | x6 | x6 | x6 | x6 | x6 | x6 | x6 | (A,4 G,2) | x6 | x6 | x6 | %50
 x6 | x6 | x6 | x6 | x6 |] %55

